X:496
T: "Staendchen"
N: Z1176
O: Europa, Mitteleuropa, Deutschland, Niederrhein
R: Liebes - Lied, verlassene Liebe
M: 4/4
L: 1/8
K: A
 | c4B2AA | G2A2B4
e4f2ee | d2c2B2z
E | A2AB2B | c2cB2
B | cccd2d | e3A2=c | B3z
f2 | e2AAc2B2 | A4z4

